X: 33331
T: Queen Esther's
R: polka
M: 2/4
K: Aminor
|:A>B cd|BG Gg|e>d ce|d/e/d/c/ Be|A>B cd|BG G2|A>G Fd|B3 e:|
|:cA Ac|d/e/d/c/ B2|^GA ce|a/b/a/g/ f2|eA Ac|d/e/d/c/ B2|^GA Bc|A2 A2:|
|:A,C AG|FG E2|D>C B,E|CE B,C|A,C AG|FG E2|D>C B,E|CB, A,2:|

